packages/ui-icons/svg/Line/sis-synced.svg

<svg viewBox="0 0 1920 1920" version="1.1" xmlns="http://www.w3.org/2000/svg">
    <path d="M960,0 C1489.35529,0 1920,430.644706 1920,960 C1920,1489.35529 1489.35529,1920 960,1920 C430.644706,1920 0,1489.35529 0,960 C0,674.710588 127.058824,407.378824 342.889412,225.882353 L342.889412,225.882353 L0,225.882353 L0,112.941176 L564.705882,112.941176 L564.705882,677.647059 L451.764706,677.647059 L451.764706,284.272941 C239.548235,444.084706 112.941176,692.894118 112.941176,960 C112.941176,1427.12471 492.875294,1807.05882 960,1807.05882 C1427.12471,1807.05882 1807.05882,1427.12471 1807.05882,960 C1807.05882,492.875294 1427.12471,112.941176 960,112.941176 L960,112.941176 Z M1315.36941,714.375529 L1395.21882,794.224941 L919.736471,1269.70729 L637.722353,987.806118 L717.571765,907.956706 L919.736471,1110.00847 L1315.36941,714.375529 Z" stroke="none" stroke-width="1" fill-rule="evenodd"/>
</svg>

<svg viewBox="0 0 1920 1920" xmlns="http://www.w3.org/2000/svg">
    <path d="M960 0c529.355 0 960 430.645 960 960s-430.645 960-960 960S0 1489.355 0 960c0-285.29 127.059-552.621 342.89-734.118H0v-112.94h564.706v564.705H451.765V284.273C239.548 444.085 112.94 692.894 112.94 960c0 467.125 379.934 847.059 847.059 847.059 467.125 0 847.059-379.934 847.059-847.059 0-467.125-379.934-847.059-847.059-847.059Zm355.37 714.376 79.849 79.849-475.483 475.482-282.014-281.9 79.85-79.85 202.164 202.051 395.633-395.632Z" fill-rule="evenodd"/>
</svg>
